X: 6384
T:O'Connor's
M:2/4
L:1/16
Q:150
S:Irish Traditional    Arranged by John Layton 14/2/01
R:Polka
O:Ireland
B:Mally - 100 Irish Polkas
K:D
B2|A3B d2f2|A3B d2f2|e2B2 B2AB|d2B2 B2d2|
A3B d2f2|A3B d2f2|e2B2 c2d2|e2d2 d2::ef|
a2f2 f2ef|a2f2 f3e|d2B2 B2AB|d2B2 B2ef|
a2f2 f2ef|a2f2 f3e|d2B2 c2d2|e2d2 d2:|
